src/assets/image/logo.svg

<svg xmlns:xlink="http://www.w3.org/1999/xlink" xmlns="http://www.w3.org/2000/svg" width="63" height="73" viewBox="0 0 63 73" fill="none">
<g clip-path="url(#clip0_2901_266)">
<mask id="mask0_2901_266" style="mask-type:luminance" maskUnits="userSpaceOnUse" x="0" y="0" width="63" height="73">
<path d="M62.7587 0H0V72.7717H62.7587V0Z" fill="white"/>
</mask>
<g mask="url(#mask0_2901_266)">
<path d="M13.0852 15.4974C11.8038 16.6362 10.6162 17.8254 9.50362 19.0545C3.48511 25.6988 0.0107234 33.5801 0 41.7614C0.00268085 58.8885 14.0182 72.7718 31.3123 72.7718C51.6546 72.7718 62.7587 56.9507 62.7587 41.7614C62.7587 33.973 58.1664 25.2714 50.9362 24.045C56.9815 26.7871 58.8956 35.5444 58.8983 41.7614C58.8742 55.3898 46.7567 66.9159 31.3123 66.9159C17.5489 66.9159 6.41528 55.3898 6.38847 41.7614C6.38043 36.1789 8.50098 30.5008 12.5142 25.3457C13.5437 24.0264 14.6911 22.739 15.9645 21.4993C16.1602 21.3082 16.38 21.1277 16.5811 20.9392C17.7982 19.7977 19.1011 18.6881 20.5246 17.6369C21.1224 17.1989 21.7363 16.7689 22.3663 16.3495C28.3312 12.3756 35.8215 9.28308 44.4968 7.63461L40.0412 16.9706L34.8216 27.9047L31.3847 35.1064L24.0472 19.8482C23.7952 20.026 23.5352 20.1959 23.2912 20.3764C21.6291 21.6002 20.1091 22.8956 18.7284 24.2388C18.5971 24.3662 18.4737 24.4963 18.3477 24.6264L31.3767 51.8168L56.1826 0.0532227C53.3141 0.140823 50.5126 0.350533 47.8076 0.706242C36.8403 2.14235 27.1758 5.86657 19.3021 10.6183L13.0852 15.4974L13.7179 14.9585L13.0826 15.4974H13.0852Z" fill="#1D1C1B"/>
</g>
</g>
<defs>
<clipPath id="clip0_2901_266">
<rect width="63" height="73" fill="white"/>
</clipPath>
</defs>
</svg>

<svg xmlns="http://www.w3.org/2000/svg" width="63" height="73" fill="none"><g clip-path="url(#a)"><mask id="b" width="63" height="73" x="0" y="0" maskUnits="userSpaceOnUse" style="mask-type:luminance"><path fill="#fff" d="M62.759 0H0v72.772h62.759V0Z"/></mask><g mask="url(#b)"><path fill="#1D1C1B" d="M13.085 15.497a46.435 46.435 0 0 0-3.581 3.558C3.485 25.699.01 33.58 0 41.76c.003 17.127 14.018 31.01 31.312 31.01 20.343 0 31.447-15.82 31.447-31.01 0-7.788-4.593-16.49-11.823-17.716 6.045 2.742 7.96 11.5 7.962 17.716-.024 13.629-12.141 25.155-27.586 25.155-13.763 0-24.897-11.526-24.924-25.155-.008-5.582 2.113-11.26 6.126-16.415a37.954 37.954 0 0 1 3.45-3.847c.196-.19.416-.371.617-.56a43.741 43.741 0 0 1 3.944-3.302 49.959 49.959 0 0 1 1.841-1.288c5.965-3.973 13.456-7.066 22.13-8.714l-4.455 9.336-5.22 10.934-3.436 7.201-7.338-15.258c-.252.178-.512.348-.756.528a43.682 43.682 0 0 0-4.563 3.863c-.13.127-.254.257-.38.387l13.029 27.19L56.183.054c-2.869.088-5.67.298-8.375.653-10.968 1.436-20.632 5.16-28.506 9.912l-6.217 4.88.633-.54-.635.54h.002Z"/></g></g><defs><clipPath id="a"><path fill="#fff" d="M0 0h63v73H0z"/></clipPath></defs></svg>
